; generated by PrusaSlicer 2.3.0+win64 on 2021-03-24 at 17:52:32 UTC

; 

; external perimeters extrusion width = 0.45mm
; perimeters extrusion width = 0.45mm
; infill extrusion width = 0.45mm
; solid infill extrusion width = 0.45mm
; top infill extrusion width = 0.40mm
; first layer extrusion width = 0.70mm

M107
M104 S200 ; set temperature
;TYPE:Custom
G28 ; home all axes
G1 Z5 F5000 ; lift nozzle
M109 S200 ; set temperature and wait for it to be reached
G21 ; set units to millimeters
G90 ; use absolute coordinates
M82 ; use absolute distances for extrusion
G92 E0
; Filament gcode
;LAYER_CHANGE
;Z:0.35
;HEIGHT:0.35
G1 Z0.350 F7800.000
G1 E-2.00000 F2400.000
G92 E0
G1 X22.223 Y66.158 F7800.000
G1 E2.00000 F2400.000
;TYPE:Skirt
;WIDTH:0.7
G1 F1800.000
G1 X23.383 Y65.825 E2.10971
G1 X24.577 Y65.708 E2.21884
G1 X104.806 Y65.403 E9.51409
G1 X126.925 Y65.403 E11.52527
G1 X179.437 Y65.981 E16.30051
G1 X180.620 Y66.139 E16.40907
G1 X181.756 Y66.507 E16.51762
G1 X182.807 Y67.073 E16.62618
G1 X183.745 Y67.823 E16.73531
G1 X184.398 Y68.551 E16.82427
G1 X184.940 Y69.373 E16.91381
G1 X185.355 Y70.266 E17.00335
G1 X185.632 Y71.211 E17.09289
G1 X185.772 Y72.288 E17.19165
G1 X185.963 Y78.177 E17.72742
G1 X185.907 Y79.683 E17.86444
G1 X184.168 Y100.491 E19.76315
G1 X183.872 Y102.051 E19.90749
G1 X181.367 Y110.737 E20.72953
G1 X180.806 Y112.037 E20.85823
G1 X180.244 Y113.027 E20.96174
G1 X179.594 Y113.945 E21.06407
G1 X178.619 Y115.057 E21.19846
G1 X177.304 Y116.219 E21.35812
G1 X176.197 Y116.983 E21.48038
G1 X153.367 Y130.368 E23.88675
G1 X151.886 Y131.002 E24.03328
G1 X150.461 Y131.277 E24.16529
G1 X116.546 Y134.542 E27.26343
G1 X114.977 Y134.584 E27.40607
G1 X28.169 Y123.813 E35.36005
G1 X27.357 Y123.660 E35.43516
G1 X26.276 Y123.289 E35.53909
G1 X25.308 Y122.770 E35.63901
G1 X23.771 Y121.565 E35.81660
G1 X23.073 Y120.879 E35.90556
G1 X15.448 Y110.685 E37.06311
G1 X14.964 Y109.917 E37.14562
G1 X14.602 Y109.140 E37.22362
G1 X14.314 Y108.240 E37.30947
G1 X14.118 Y107.181 E37.40740
G1 X14.039 Y106.147 E37.50171
G1 X14.071 Y105.059 E37.60070
G1 X18.102 Y71.175 E40.70354
G1 X18.302 Y70.354 E40.78039
G1 X18.606 Y69.565 E40.85724
G1 X19.007 Y68.821 E40.93409
G1 X19.504 Y68.130 E41.01152
G1 X20.085 Y67.507 E41.08894
G1 X20.737 Y66.969 E41.16579
G1 X21.451 Y66.517 E41.24264
G1 X22.169 Y66.184 E41.31461
G1 E39.31461 F2400.000
G92 E0
G1 X114.024 Y123.405 F7800.000
G1 E2.00000 F2400.000
;TYPE:Perimeter
G1 F1800.000
G1 X114.250 Y123.135 E2.03204
G1 X114.382 Y123.018 E2.04808
G1 X114.678 Y122.827 E2.08013
G1 X115.006 Y122.698 E2.11217
G1 X115.353 Y122.637 E2.14419
G1 X115.706 Y122.646 E2.17626
G1 X116.049 Y122.724 E2.20830
G1 X116.370 Y122.869 E2.24034
G1 X116.657 Y123.075 E2.27238
G1 X116.896 Y123.333 E2.30443
G1 X117.080 Y123.634 E2.33647
G1 X117.200 Y123.965 E2.36851
G1 X117.253 Y124.314 E2.40055
G1 X117.235 Y124.665 E2.43260
G1 X117.148 Y125.007 E2.46464
G1 X116.996 Y125.324 E2.49668
G1 X116.783 Y125.605 E2.52873
G1 X116.519 Y125.839 E2.56077
G1 X116.213 Y126.015 E2.59281
G1 X115.879 Y126.127 E2.62485
G1 X115.530 Y126.171 E2.65690
G1 X115.178 Y126.144 E2.68894
G1 X114.839 Y126.049 E2.72098
G1 X114.526 Y125.888 E2.75302
G1 X114.250 Y125.669 E2.78507
G1 X114.024 Y125.399 E2.81711
G1 X113.855 Y125.089 E2.84915
G1 X113.751 Y124.752 E2.88120
G1 X113.716 Y124.402 E2.91324
G1 X113.751 Y124.051 E2.94528
G1 X113.855 Y123.714 E2.97732
G1 X113.992 Y123.456 E3.00392
G1 X113.459 Y123.130 F7800.000
G1 F1800.000
G1 X113.651 Y122.862 E3.03389
G1 X113.992 Y122.529 E3.07726
G1 X114.393 Y122.270 E3.12064
G1 X114.837 Y122.096 E3.16401
G1 X115.306 Y122.013 E3.20737
G1 X115.783 Y122.025 E3.25075
G1 X116.248 Y122.131 E3.29412
G1 X116.683 Y122.327 E3.33750
G1 X117.071 Y122.606 E3.38087
G1 X117.395 Y122.955 E3.42424
G1 X117.644 Y123.362 E3.46761
G1 X117.807 Y123.811 E3.51098
G1 X117.878 Y124.282 E3.55435
G1 X117.854 Y124.759 E3.59773
G1 X117.736 Y125.221 E3.64110
G1 X117.529 Y125.651 E3.68447
G1 X117.241 Y126.031 E3.72784
G1 X116.884 Y126.347 E3.77121
G1 X116.471 Y126.585 E3.81459
G1 X116.019 Y126.737 E3.85796
G1 X115.545 Y126.796 E3.90133
G1 X115.070 Y126.761 E3.94470
G1 X114.611 Y126.631 E3.98807
G1 X114.186 Y126.414 E4.03145
G1 X113.813 Y126.116 E4.07482
G1 X113.507 Y125.751 E4.11819
G1 X113.278 Y125.332 E4.16156
G1 X113.138 Y124.876 E4.20493
G1 X113.090 Y124.402 E4.24831
G1 X113.138 Y123.927 E4.29168
G1 X113.278 Y123.471 E4.33505
G1 X113.428 Y123.181 E4.36470
G1 X112.895 Y122.856 F7800.000
;TYPE:External perimeter
G1 F1800.000
G1 X113.171 Y122.460 E4.40861
G1 X113.376 Y122.239 E4.43600
G1 X113.602 Y122.040 E4.46338
G1 X113.847 Y121.864 E4.49077
G1 X114.107 Y121.713 E4.51815
G1 X114.382 Y121.590 E4.54554
G1 X114.667 Y121.494 E4.57292
G1 X114.961 Y121.427 E4.60031
G1 X115.260 Y121.389 E4.62769
G1 X115.562 Y121.382 E4.65515
G1 X115.861 Y121.404 E4.68246
G1 X116.158 Y121.457 E4.70984
G1 X116.448 Y121.538 E4.73723
G1 X116.728 Y121.648 E4.76461
G1 X116.996 Y121.786 E4.79200
G1 X117.249 Y121.949 E4.81938
G1 X117.485 Y122.137 E4.84677
G1 X117.700 Y122.347 E4.87415
G1 X117.894 Y122.578 E4.90154
G1 X118.063 Y122.827 E4.92892
G1 X118.207 Y123.091 E4.95631
G1 X118.324 Y123.369 E4.98369
G1 X118.413 Y123.656 E5.01107
G1 X118.473 Y123.951 E5.03846
G1 X118.503 Y124.251 E5.06584
G1 X118.503 Y124.552 E5.09323
G1 X118.473 Y124.852 E5.12061
G1 X118.413 Y125.147 E5.14800
G1 X118.324 Y125.435 E5.17538
G1 X118.207 Y125.712 E5.20277
G1 X118.063 Y125.977 E5.23015
G1 X117.894 Y126.226 E5.25754
G1 X117.700 Y126.456 E5.28492
G1 X117.485 Y126.667 E5.31230
G1 X117.249 Y126.855 E5.33969
G1 X116.996 Y127.018 E5.36707
G1 X116.728 Y127.155 E5.39446
G1 X116.448 Y127.265 E5.42184
G1 X116.158 Y127.347 E5.44923
G1 X115.861 Y127.399 E5.47661
G1 X115.561 Y127.422 E5.50400
G1 X115.260 Y127.414 E5.53138
G1 X114.961 Y127.377 E5.55876
G1 X114.667 Y127.310 E5.58615
G1 X114.382 Y127.214 E5.61353
G1 X114.107 Y127.090 E5.64092
G1 X113.847 Y126.939 E5.66830
G1 X113.602 Y126.764 E5.69569
G1 X113.376 Y126.564 E5.72307
G1 X113.171 Y126.344 E5.75046
G1 X112.990 Y126.103 E5.77784
G1 X112.833 Y125.847 E5.80523
G1 X112.702 Y125.575 E5.83261
G1 X112.599 Y125.292 E5.86000
G1 X112.525 Y125.000 E5.88738
G1 X112.480 Y124.703 E5.91476
G1 X112.465 Y124.402 E5.94215
G1 X112.480 Y124.101 E5.96953
G1 X112.525 Y123.803 E5.99692
G1 X112.599 Y123.511 E6.02430
G1 X112.702 Y123.228 E6.05169
G1 X112.863 Y122.907 E6.08439
G1 X113.294 Y122.865 F7800.000
G1 E4.08439 F2400.000
G92 E0
G1 X115.754 Y122.849 F7800.000
G1 E2.00000 F2400.000
;TYPE:Solid infill
;WIDTH:0.718304
G1 F1800.000
G1 X116.521 Y123.618 E2.10157
G1 X116.656 Y123.838 E2.12577
G1 X116.744 Y124.081 E2.14997
G1 X116.783 Y124.337 E2.17418
G1 X116.770 Y124.595 E2.19838
G1 X116.733 Y124.738 E2.21215
G1 X115.145 Y123.150 E2.42237
G1 X114.893 Y123.246 E2.44762
G1 X114.676 Y123.386 E2.47183
G1 X114.573 Y123.487 E2.48530
G1 X116.402 Y125.316 E2.72743
G1 X116.244 Y125.456 E2.74721
G1 X116.020 Y125.585 E2.77142
G1 X115.827 Y125.650 E2.79048
G1 X114.236 Y124.060 E3.00097
G1 X114.193 Y124.272 E3.02124
G1 X114.193 Y124.531 E3.04545
G1 X114.245 Y124.784 E3.06965
G1 X114.345 Y125.023 E3.09385
G1 X114.464 Y125.198 E3.11366
G1 X115.227 Y125.960 E3.21458
G1 E1.21458 F2400.000
G92 E0
G1 X143.612 Y122.876 F7800.000
G1 E2.00000 F2400.000
;TYPE:Perimeter
;WIDTH:0.7
G1 F1800.000
G1 X143.333 Y122.203 E2.06625
G1 X142.999 Y121.767 E2.11613
G1 X142.564 Y121.433 E2.16602
G1 X142.057 Y121.224 E2.21590
G1 X139.263 Y120.897 E2.47170
G1 X139.022 Y120.845 E2.49413
G1 X138.843 Y120.761 E2.51211
G1 X138.619 Y120.568 E2.53901
G1 X138.469 Y120.313 E2.56591
G1 X138.409 Y120.023 E2.59281
G1 X138.447 Y119.716 E2.62097
G1 X138.660 Y119.155 E2.67554
G1 X138.964 Y118.621 E2.73139
G1 X139.139 Y118.381 E2.75841
G1 X139.983 Y117.428 E2.87418
G1 X140.585 Y116.698 E2.96019
G1 X141.161 Y115.942 E3.04665
G1 X141.706 Y115.162 E3.13311
G1 X142.219 Y114.362 E3.21957
G1 X142.700 Y113.542 E3.30604
G1 X143.342 Y112.337 E3.43014
G1 X143.342 Y105.017 E4.09581
G1 X148.600 Y105.015 E4.57388
G1 X148.585 Y111.149 E5.13161
G1 X148.565 Y111.363 E5.15114
G1 X148.597 Y111.804 E5.19139
G1 X148.700 Y112.235 E5.23166
G1 X148.872 Y112.643 E5.27192
G1 X149.068 Y112.955 E5.30547
G1 X153.583 Y118.989 E5.99075
G1 X153.677 Y119.190 E6.01089
G1 X153.726 Y119.406 E6.03103
G1 X153.729 Y119.628 E6.05117
G1 X153.687 Y119.845 E6.07131
G1 X153.541 Y120.143 E6.10145
G1 X153.395 Y120.310 E6.12159
G1 X153.298 Y120.390 E6.13304
G1 X152.839 Y120.685 E6.18264
G1 X152.330 Y120.918 E6.23360
G1 X152.064 Y121.007 E6.25910
G1 X151.539 Y121.122 E6.30791
G1 X150.453 Y121.207 E6.40698
G1 X149.923 Y121.392 E6.45806
G1 X149.471 Y121.676 E6.50660
G1 X149.094 Y122.053 E6.55513
G1 X148.810 Y122.505 E6.60366
G1 X148.677 Y122.883 E6.64003
G1 X143.672 Y122.876 E7.09518
G1 E5.09518 F2400.000
G92 E0
G1 X149.224 Y105.446 F7800.000
G1 E2.00000 F2400.000
G1 F1800.000
G1 X149.210 Y111.178 E2.52126
G1 X149.192 Y111.369 E2.53868
G1 X149.217 Y111.709 E2.56963
G1 X149.296 Y112.040 E2.60059
G1 X149.428 Y112.354 E2.63155
G1 X149.584 Y112.601 E2.65812
G1 X154.121 Y118.668 E3.34702
G1 X154.269 Y118.988 E3.37905
G1 X154.347 Y119.332 E3.41109
G1 X154.359 Y119.508 E3.42713
G1 X154.353 Y119.684 E3.44317
G1 X154.285 Y120.029 E3.47521
G1 X154.146 Y120.353 E3.50724
G1 X154.052 Y120.503 E3.52328
G1 X153.821 Y120.768 E3.55532
G1 X153.419 Y121.068 E3.60088
G1 X153.139 Y121.234 E3.63044
G1 X152.548 Y121.504 E3.68953
G1 X151.925 Y121.687 E3.74861
G1 X151.619 Y121.743 E3.77686
G1 X150.583 Y121.823 E3.87141
G1 X150.196 Y121.959 E3.90869
G1 X149.863 Y122.168 E3.94442
G1 X149.585 Y122.446 E3.98015
G1 X149.376 Y122.778 E4.01588
G1 X149.246 Y123.149 E4.05161
G1 X149.206 Y123.509 E4.08449
G1 X142.969 Y123.500 E4.65165
G1 X142.955 Y122.922 E4.70420
G1 X142.787 Y122.518 E4.74399
G1 X142.553 Y122.213 E4.77891
G1 X142.249 Y121.979 E4.81383
G1 X141.894 Y121.832 E4.84875
G1 X138.979 Y121.483 E5.11575
G1 X138.818 Y121.437 E5.13094
G1 X138.516 Y121.295 E5.16127
G1 X138.252 Y121.091 E5.19160
G1 X138.039 Y120.835 E5.22193
G1 X137.885 Y120.539 E5.25226
G1 X137.799 Y120.216 E5.28259
G1 X137.783 Y120.050 E5.29778
G1 X137.805 Y119.717 E5.32811
G1 X137.955 Y119.217 E5.37561
G1 X138.094 Y118.889 E5.40798
G1 X138.258 Y118.573 E5.44035
G1 X138.446 Y118.270 E5.47271
G1 X138.653 Y117.989 E5.50452
G1 X139.508 Y117.022 E5.62190
G1 X140.096 Y116.310 E5.70581
G1 X140.656 Y115.573 E5.79000
G1 X141.187 Y114.815 E5.87418
G1 X141.686 Y114.035 E5.95837
G1 X142.155 Y113.236 E6.04255
G1 X142.718 Y112.181 E6.15131
G1 X142.718 Y105.440 E6.76428
G1 X140.124 Y105.440 E7.00015
G1 X139.937 Y105.417 E7.01726
G1 X139.744 Y105.313 E7.03721
G1 X139.610 Y105.139 E7.05715
G1 X139.558 Y104.926 E7.07709
G1 X139.575 Y104.780 E7.09045
G1 X139.632 Y104.645 E7.10380
G1 X139.781 Y104.484 E7.12374
G1 X139.912 Y104.417 E7.13709
G1 X140.056 Y104.390 E7.15044
G1 X151.997 Y104.390 E8.23618
G1 X152.186 Y104.414 E8.25354
G1 X152.383 Y104.522 E8.27397
G1 X152.481 Y104.636 E8.28765
G1 X152.559 Y104.847 E8.30809
G1 X152.559 Y104.998 E8.32177
G1 X152.480 Y105.208 E8.34221
G1 X152.321 Y105.367 E8.36264
G1 X152.110 Y105.445 E8.38308
G1 X149.284 Y105.446 E8.64003
G1 X149.847 Y106.072 F7800.000
;TYPE:External perimeter
G1 F1800.000
G1 X149.835 Y111.208 E9.10702
G1 X149.819 Y111.376 E9.12233
G1 X149.836 Y111.613 E9.14397
G1 X149.892 Y111.845 E9.16562
G1 X149.984 Y112.064 E9.18727
G1 X150.099 Y112.246 E9.20687
G1 X154.515 Y118.135 E9.87611
G1 X154.658 Y118.347 E9.89942
G1 X154.771 Y118.561 E9.92142
G1 X154.861 Y118.786 E9.94341
G1 X154.927 Y119.018 E9.96541
G1 X154.968 Y119.257 E9.98740
G1 X154.985 Y119.498 E10.00940
G1 X154.976 Y119.740 E10.03139
G1 X154.942 Y119.979 E10.05339
G1 X154.883 Y120.214 E10.07539
G1 X154.799 Y120.441 E10.09738
G1 X154.693 Y120.658 E10.11938
G1 X154.564 Y120.863 E10.14137
G1 X154.415 Y121.053 E10.16337
G1 X154.246 Y121.227 E10.18536
G1 X154.057 Y121.385 E10.20778
G1 X153.757 Y121.593 E10.24099
G1 X153.439 Y121.782 E10.27461
G1 X153.109 Y121.948 E10.30824
G1 X152.767 Y122.090 E10.34187
G1 X152.416 Y122.207 E10.37549
G1 X152.058 Y122.298 E10.40912
G1 X151.699 Y122.363 E10.44227
G1 X150.712 Y122.440 E10.53230
G1 X150.469 Y122.525 E10.55578
G1 X150.255 Y122.659 E10.57870
G1 X150.077 Y122.838 E10.60163
G1 X149.943 Y123.051 E10.62455
G1 X149.859 Y123.289 E10.64748
G1 X149.835 Y123.506 E10.66732
G1 X149.825 Y124.134 E10.72447
G1 X142.358 Y124.124 E11.40341
G1 X142.333 Y123.053 E11.50076
G1 X142.241 Y122.833 E11.52247
G1 X142.108 Y122.659 E11.54243
G1 X141.934 Y122.525 E11.56239
G1 X141.731 Y122.441 E11.58235
G1 X138.840 Y122.093 E11.84710
G1 X138.614 Y122.029 E11.86847
G1 X138.396 Y121.940 E11.88984
G1 X138.189 Y121.829 E11.91122
G1 X137.996 Y121.695 E11.93259
G1 X137.818 Y121.542 E11.95396
G1 X137.658 Y121.370 E11.97534
G1 X137.517 Y121.181 E11.99671
G1 X137.398 Y120.979 E12.01808
G1 X137.302 Y120.764 E12.03946
G1 X137.229 Y120.541 E12.06083
G1 X137.181 Y120.311 E12.08220
G1 X137.158 Y120.077 E12.10358
G1 X137.161 Y119.842 E12.12495
G1 X137.189 Y119.608 E12.14633
G1 X137.243 Y119.375 E12.16809
G1 X137.370 Y118.996 E12.20449
G1 X137.528 Y118.623 E12.24128
G1 X137.714 Y118.264 E12.27807
G1 X137.928 Y117.920 E12.31486
G1 X138.166 Y117.596 E12.35145
G1 X139.033 Y116.616 E12.47044
G1 X139.606 Y115.922 E12.55225
G1 X140.151 Y115.205 E12.63416
G1 X140.667 Y114.467 E12.71607
G1 X141.154 Y113.708 E12.79798
G1 X141.609 Y112.931 E12.87989
G1 X142.093 Y112.025 E12.97330
G1 X142.093 Y106.065 E13.51524
G1 X140.102 Y106.065 E13.69629
G1 X139.763 Y106.018 E13.72736
G1 X139.469 Y105.886 E13.75667
G1 X139.223 Y105.678 E13.78598
G1 X139.124 Y105.550 E13.80067
G1 X139.045 Y105.410 E13.81536
G1 X138.947 Y105.102 E13.84467
G1 X138.932 Y104.942 E13.85936
G1 X138.969 Y104.621 E13.88867
G1 X139.094 Y104.324 E13.91798
G1 X139.186 Y104.191 E13.93267
G1 X139.296 Y104.073 E13.94736
G1 X139.560 Y103.888 E13.97667
G1 X139.709 Y103.825 E13.99136
G1 X140.025 Y103.764 E14.02067
G1 X152.020 Y103.765 E15.11133
G1 X152.364 Y103.814 E15.14294
G1 X152.663 Y103.951 E15.17284
G1 X152.911 Y104.167 E15.20273
G1 X153.088 Y104.444 E15.23263
G1 X153.180 Y104.760 E15.26252
G1 X153.179 Y105.088 E15.29242
G1 X153.143 Y105.249 E15.30740
G1 X153.006 Y105.548 E15.33730
G1 X152.907 Y105.680 E15.35229
G1 X152.790 Y105.796 E15.36727
G1 X152.513 Y105.973 E15.39717
G1 X152.197 Y106.065 E15.42706
G1 X152.013 Y106.078 E15.44384
G1 X149.907 Y106.072 E15.63535
G1 X149.447 Y106.072 F7800.000
G1 X148.913 Y104.918
;TYPE:Gap fill
;WIDTH:0.513306
G1 F1800.000
G1 X151.975 Y104.921 E15.83060
;WIDTH:0.513307
G1 X151.977 Y104.921 E15.83074
;WIDTH:0.513148
G1 X152.036 Y104.921 E15.83448
G1 E13.83448 F2400.000
G92 E0
G1 X148.409 Y106.477 F7800.000
G1 E2.00000 F2400.000
;TYPE:Solid infill
;WIDTH:0.70653
G1 F1800.000
G1 X147.417 Y105.484 E2.12894
G1 X146.524 Y105.485 E2.21097
G1 X148.126 Y107.087 E2.41918
G1 X148.124 Y107.978 E2.50102
G1 X145.631 Y105.485 E2.82495
G1 X144.739 Y105.485 E2.90697
G1 X148.122 Y108.868 E3.34661
G1 X148.120 Y109.759 E3.42846
G1 X143.846 Y105.485 E3.98381
G1 X143.811 Y105.485 E3.98700
G1 X143.811 Y106.344 E4.06586
G1 X148.118 Y110.650 E4.62544
G1 X148.116 Y111.127 E4.66924
G1 X148.095 Y111.358 E4.69057
G1 X148.108 Y111.533 E4.70670
G1 X143.811 Y107.237 E5.26499
G1 X143.811 Y108.129 E5.34703
G1 X148.391 Y112.710 E5.94216
G1 X148.455 Y112.860 E5.95719
G1 X148.682 Y113.221 E5.99638
G1 X150.698 Y115.909 E6.30505
G1 X143.811 Y109.022 E7.19986
G1 X143.811 Y109.915 E7.28191
G1 X153.214 Y119.318 E8.50364
G1 X153.255 Y119.463 E8.51752
G1 X153.248 Y119.646 E8.53433
G1 X153.185 Y119.818 E8.55115
G1 X153.065 Y119.970 E8.56896
G1 X153.012 Y120.010 E8.57502
G1 X143.811 Y110.808 E9.77061
G1 X143.811 Y111.701 E9.85265
G1 X152.455 Y120.345 E10.97585
G1 X152.158 Y120.482 E11.00593
G1 X151.802 Y120.585 E11.03999
G1 X143.763 Y112.546 E12.08455
G1 X143.452 Y113.128 E12.14519
G1 X151.017 Y120.693 E13.12812
G1 X150.356 Y120.744 E13.18900
G1 X150.222 Y120.791 E13.20205
G1 X143.141 Y113.710 E14.12209
G1 X142.813 Y114.275 E14.18212
G1 X149.587 Y121.049 E15.06233
G1 X149.177 Y121.307 E15.10687
G1 X149.065 Y121.420 E15.12146
G1 X142.476 Y114.831 E15.97763
G1 X142.127 Y115.375 E16.03701
