; generated by PrusaSlicer 2.3.0+win64 on 2021-03-07 at 13:54:14 UTC

; 

; external perimeters extrusion width = 0.45mm
; perimeters extrusion width = 0.45mm
; infill extrusion width = 0.45mm
; solid infill extrusion width = 0.45mm
; top infill extrusion width = 0.40mm
; first layer extrusion width = 0.70mm

M107
M104 S200 ; set temperature
;TYPE:Custom
G28 ; home all axes
G1 Z5 F5000 ; lift nozzle
M109 S200 ; set temperature and wait for it to be reached
G21 ; set units to millimeters
G90 ; use absolute coordinates
M82 ; use absolute distances for extrusion
G92 E0
; Filament gcode
;LAYER_CHANGE
;Z:0.35
;HEIGHT:0.35
G1 Z0.350 F7800.000
G1 E-2.00000 F2400.000
G92 E0
G1 X72.576 Y64.833 F7800.000
G1 E2.00000 F2400.000
;TYPE:Skirt
;WIDTH:0.7
G1 F1800.000
G1 X73.738 Y63.783 E2.14248
G1 X74.503 Y63.315 E2.22395
G1 X75.323 Y62.955 E2.30541
G1 X76.191 Y62.708 E2.38746
G1 X77.078 Y62.581 E2.46892
G1 X130.108 Y59.138 E7.30111
G1 X136.335 Y59.127 E7.86736
G1 X137.699 Y59.270 E7.99203
G1 X139.004 Y59.691 E8.11670
G1 X140.194 Y60.371 E8.24137
G1 X141.215 Y61.277 E8.36546
G1 X152.686 Y75.108 E9.99934
G1 X153.171 Y75.861 E10.08080
G1 X153.549 Y76.666 E10.16169
G1 X153.815 Y77.515 E10.24258
G1 X153.965 Y78.392 E10.32347
G1 X153.984 Y79.516 E10.42569
G1 X153.813 Y80.627 E10.52791
G1 X146.517 Y109.194 E13.20887
G1 X145.842 Y110.894 E13.37524
G1 X144.869 Y112.557 E13.55035
G1 X143.691 Y114.007 E13.72027
G1 X142.124 Y115.400 E13.91090
G1 X140.775 Y116.288 E14.05772
G1 X139.036 Y117.099 E14.23224
G1 X72.575 Y140.503 E20.63927
G1 X71.736 Y140.736 E20.71842
G1 X70.874 Y140.856 E20.79758
G1 X69.649 Y140.831 E20.90902
G1 X68.455 Y140.584 E21.01988
G1 X67.327 Y140.121 E21.13074
G1 X66.303 Y139.460 E21.24159
G1 X48.195 Y123.373 E23.44409
G1 X47.220 Y122.278 E23.57738
G1 X46.767 Y121.541 E23.65596
G1 X46.417 Y120.759 E23.73397
G1 X46.169 Y119.931 E23.81255
G1 X46.031 Y119.078 E23.89113
G1 X46.005 Y118.214 E23.96971
G1 X46.091 Y117.360 E24.04771
G1 X46.288 Y116.519 E24.12629
G1 X46.593 Y115.710 E24.20487
G1 X71.695 Y66.122 E29.25875
G1 X72.542 Y64.883 E29.39520
G1 E27.39520 F2400.000
G92 E0
G1 X80.960 Y70.762 F7800.000
G1 E2.00000 F2400.000
;TYPE:Perimeter
G1 F1800.000
G1 X86.252 Y70.402 E2.48228
G1 X86.252 Y71.972 E2.62501
G1 X89.992 Y71.972 E2.96512
G1 X89.992 Y93.633 E4.93472
G1 X106.514 Y93.633 E6.43707
G1 X108.042 Y93.696 E6.57610
G1 X109.522 Y93.880 E6.71174
G1 X110.982 Y94.185 E6.84739
G1 X112.412 Y94.610 E6.98304
G1 X113.803 Y95.151 E7.11868
G1 X115.143 Y95.805 E7.25433
G1 X116.426 Y96.567 E7.38998
G1 X117.641 Y97.432 E7.52562
G1 X120.761 Y100.066 E7.89684
G1 X127.046 Y83.958 E9.46905
G1 X127.046 Y75.308 E10.25562
G1 X124.435 Y70.332 E10.76661
G1 X124.882 Y70.332 E10.80722
G1 X132.294 Y73.467 E11.53903
G1 X132.294 Y67.551 E12.07693
G1 X134.529 Y67.551 E12.28017
G1 X134.529 Y81.569 E13.55478
G1 X141.280 Y78.777 E14.21900
G1 X145.070 Y80.148 E14.58549
G1 X138.662 Y97.867 E16.29885
G1 X138.662 Y105.408 E16.98455
G1 X138.612 Y106.068 E17.04470
G1 X138.481 Y106.648 E17.09873
G1 X138.264 Y107.201 E17.15277
G1 X137.968 Y107.716 E17.20680
G1 X137.599 Y108.182 E17.26083
G1 X137.164 Y108.587 E17.31487
G1 X136.674 Y108.923 E17.36890
G1 X136.140 Y109.183 E17.42293
G1 X135.573 Y109.361 E17.47697
G1 X134.986 Y109.452 E17.53100
G1 X134.392 Y109.456 E17.58503
G1 X133.803 Y109.371 E17.63907
G1 X133.235 Y109.199 E17.69310
G1 X131.288 Y108.279 E17.88890
G1 X129.771 Y110.180 E18.11005
G1 X129.130 Y110.801 E18.19120
G1 X128.416 Y111.335 E18.27235
G1 X127.639 Y111.774 E18.35350
G1 X126.812 Y112.111 E18.43465
G1 X125.950 Y112.340 E18.51580
G1 X125.065 Y112.457 E18.59695
G1 X124.172 Y112.461 E18.67810
G1 X123.230 Y112.344 E18.76449
G1 X113.764 Y110.548 E19.64056
G1 X112.048 Y110.244 E19.79904
G1 X110.256 Y110.065 E19.96275
G1 X108.456 Y110.023 E20.12645
G1 X106.658 Y110.116 E20.29016
G1 X104.873 Y110.346 E20.45386
G1 X103.110 Y110.710 E20.61757
G1 X101.379 Y111.207 E20.78127
G1 X99.691 Y111.834 E20.94498
G1 X98.056 Y112.586 E21.10868
G1 X96.482 Y113.460 E21.27239
G1 X95.007 Y114.433 E21.43299
G1 X71.292 Y131.392 E24.08407
G1 X70.780 Y130.417 E24.18421
G1 X70.095 Y129.389 E24.29659
G1 X69.307 Y128.437 E24.40896
G1 X68.424 Y127.572 E24.52133
G1 X67.493 Y126.833 E24.62944
G1 X55.920 Y118.585 E25.92165
G1 X57.045 Y117.917 E26.04064
G1 X65.470 Y117.917 E26.80675
G1 X70.921 Y120.889 E27.37126
G1 X76.864 Y109.989 E28.50014
G1 X76.864 Y99.822 E29.42467
G1 X84.196 Y86.374 E30.81739
G1 X84.196 Y75.161 E31.83703
G1 X80.996 Y70.810 E32.32817
G1 E30.32817 F2400.000
G92 E0
G1 X135.154 Y80.634 F7800.000
G1 E2.00000 F2400.000
G1 F1800.000
G1 X141.264 Y78.107 E2.60125
G1 X145.870 Y79.773 E3.04657
G1 X139.287 Y97.977 E4.80678
G1 X139.287 Y105.432 E5.48465
G1 X139.232 Y106.161 E5.55116
G1 X139.080 Y106.832 E5.61368
G1 X138.829 Y107.472 E5.67620
G1 X138.487 Y108.068 E5.73872
G1 X138.059 Y108.607 E5.80124
G1 X137.556 Y109.076 E5.86376
G1 X136.990 Y109.465 E5.92628
G1 X136.371 Y109.766 E5.98880
G1 X135.715 Y109.971 E6.05132
G1 X135.036 Y110.077 E6.11384
G1 X134.348 Y110.081 E6.17636
G1 X133.668 Y109.982 E6.23888
G1 X133.010 Y109.784 E6.30140
G1 X131.468 Y109.055 E6.45646
G1 X130.235 Y110.601 E6.63627
G1 X129.536 Y111.277 E6.72468
G1 X128.758 Y111.860 E6.81309
G1 X127.911 Y112.338 E6.90150
G1 X127.011 Y112.705 E6.98992
G1 X126.071 Y112.954 E7.07833
G1 X125.107 Y113.082 E7.16674
G1 X124.135 Y113.086 E7.25515
G1 X123.133 Y112.961 E7.34698
G1 X113.651 Y111.163 E8.22452
G1 X111.962 Y110.864 E8.38051
G1 X110.218 Y110.689 E8.53990
G1 X108.465 Y110.648 E8.69930
G1 X106.715 Y110.739 E8.85869
G1 X104.976 Y110.963 E9.01809
G1 X103.259 Y111.317 E9.17748
G1 X101.574 Y111.801 E9.33688
G1 X99.931 Y112.411 E9.49627
G1 X98.339 Y113.144 E9.65567
G1 X96.806 Y113.995 E9.81506
G1 X95.361 Y114.948 E9.97243
G1 X71.019 Y132.356 E12.69360
G1 X70.787 Y131.773 E12.75064
G1 X70.242 Y130.737 E12.85710
G1 X69.593 Y129.763 E12.96356
G1 X68.846 Y128.861 E13.07002
G1 X68.010 Y128.042 E13.17648
G1 X67.117 Y127.332 E13.28016
G1 X54.776 Y118.538 E14.65811
G1 X56.874 Y117.293 E14.87990
G1 X65.630 Y117.293 E15.67609
G1 X70.672 Y120.042 E16.19827
G1 X76.239 Y109.830 E17.25584
G1 X76.239 Y99.663 E18.18038
G1 X83.571 Y86.215 E19.57310
G1 X83.571 Y75.366 E20.55960
G1 X79.782 Y70.215 E21.14102
G1 X86.876 Y69.733 E21.78758
G1 X86.876 Y71.347 E21.93430
G1 X90.617 Y71.347 E22.27442
G1 X90.617 Y93.008 E24.24402
G1 X106.527 Y93.008 E25.69072
G1 X108.093 Y93.072 E25.83326
G1 X109.625 Y93.263 E25.97360
G1 X111.135 Y93.579 E26.11393
G1 X112.615 Y94.018 E26.25427
G1 X114.053 Y94.578 E26.39461
G1 X115.440 Y95.255 E26.53494
G1 X116.767 Y96.043 E26.67528
G1 X118.025 Y96.938 E26.81562
G1 X120.496 Y99.025 E27.10973
G1 X126.421 Y83.841 E28.59180
G1 X126.421 Y75.462 E29.35367
G1 X123.798 Y70.462 E29.86712
G1 X123.798 Y69.707 E29.93577
G1 X125.008 Y69.707 E30.04587
G1 X131.669 Y72.524 E30.70348
G1 X131.669 Y66.926 E31.21247
G1 X135.154 Y66.926 E31.52935
G1 X135.154 Y80.574 E32.77034
G1 X135.779 Y79.700 F7800.000
;TYPE:External perimeter
G1 F1800.000
G1 X141.249 Y77.437 E33.30861
G1 X146.670 Y79.398 E33.83276
G1 X139.911 Y98.086 E35.63984
G1 X139.911 Y105.455 E36.30986
G1 X139.852 Y106.254 E36.38274
G1 X139.679 Y107.016 E36.45375
G1 X139.394 Y107.743 E36.52475
G1 X139.005 Y108.420 E36.59576
G1 X138.520 Y109.032 E36.66677
G1 X137.949 Y109.564 E36.73777
G1 X137.396 Y109.944 E36.79878
G1 X137.305 Y110.007 E36.80878
G1 X136.603 Y110.348 E36.87978
G1 X135.858 Y110.582 E36.95079
G1 X135.086 Y110.702 E37.02180
G1 X134.305 Y110.706 E37.09280
G1 X133.532 Y110.594 E37.16381
G1 X132.785 Y110.369 E37.23482
G1 X131.648 Y109.831 E37.34915
G1 X130.698 Y111.022 E37.48760
G1 X129.943 Y111.754 E37.58328
G1 X129.100 Y112.384 E37.67895
G1 X128.184 Y112.902 E37.77462
G1 X127.210 Y113.299 E37.87030
G1 X126.193 Y113.568 E37.96597
G1 X125.150 Y113.707 E38.06165
G1 X124.097 Y113.711 E38.15732
G1 X123.036 Y113.579 E38.25459
G1 X113.538 Y111.778 E39.13360
G1 X111.876 Y111.483 E39.28709
G1 X110.179 Y111.314 E39.44218
G1 X108.474 Y111.273 E39.59726
G1 X106.771 Y111.362 E39.75234
G1 X105.079 Y111.579 E39.90743
G1 X103.409 Y111.925 E40.06251
G1 X101.770 Y112.395 E40.21760
G1 X100.171 Y112.989 E40.37268
G1 X98.621 Y113.702 E40.52776
G1 X97.130 Y114.530 E40.68285
G1 X95.715 Y115.463 E40.83698
G1 X70.709 Y133.346 E43.63242
G1 X70.628 Y133.062 E43.65925
G1 X70.218 Y132.035 E43.75980
G1 X69.704 Y131.056 E43.86035
G1 X69.091 Y130.136 E43.96090
G1 X68.386 Y129.285 E44.06145
G1 X67.596 Y128.511 E44.16200
G1 X66.741 Y127.832 E44.26124
G1 X53.632 Y118.490 E45.72493
G1 X56.702 Y116.668 E46.04954
G1 X65.789 Y116.668 E46.87580
G1 X70.422 Y119.194 E47.35564
G1 X75.614 Y109.671 E48.34191
G1 X75.614 Y99.503 E49.26645
G1 X82.946 Y86.056 E50.65917
G1 X82.946 Y75.571 E51.61254
G1 X78.605 Y69.669 E52.27878
G1 X87.501 Y69.065 E53.08963
G1 X87.501 Y70.722 E53.24034
G1 X91.242 Y70.722 E53.58045
G1 X91.242 Y92.383 E55.55006
G1 X106.540 Y92.383 E56.94111
G1 X108.145 Y92.449 E57.08717
G1 X109.728 Y92.646 E57.23219
G1 X111.289 Y92.973 E57.37722
G1 X112.818 Y93.427 E57.52224
G1 X114.304 Y94.005 E57.66727
G1 X115.737 Y94.704 E57.81230
G1 X117.109 Y95.519 E57.95732
G1 X118.408 Y96.444 E58.10235
G1 X120.232 Y97.983 E58.31936
G1 X125.797 Y83.723 E59.71129
G1 X125.797 Y75.616 E60.44847
G1 X123.173 Y70.616 E60.96192
G1 X123.173 Y69.082 E61.10138
G1 X125.135 Y69.082 E61.27982
G1 X131.044 Y71.581 E61.86323
G1 X131.044 Y66.302 E62.34332
G1 X135.779 Y66.302 E62.77384
G1 X135.779 Y79.640 E63.98667
G1 X135.925 Y80.072 F7800.000
G1 E61.98667 F2400.000
G92 E0
G1 X144.565 Y80.993 F7800.000
G1 E2.00000 F2400.000
;TYPE:Solid infill
;WIDTH:0.700159
G1 F1800.000
G1 X143.735 Y80.164 E2.10670
G1 X142.351 Y79.663 E2.24063
G1 X144.110 Y81.423 E2.46700
G1 X143.876 Y82.072 E2.52979
G1 X141.144 Y79.340 E2.88114
G1 X140.519 Y79.599 E2.94269
G1 X143.641 Y82.721 E3.34427
G1 X143.406 Y83.370 E3.40706
G1 X139.893 Y79.858 E3.85888
G1 X139.268 Y80.116 E3.92043
G1 X143.171 Y84.019 E4.42249
G1 X142.937 Y84.669 E4.48527
G1 X138.643 Y80.375 E5.03757
G1 X138.017 Y80.633 E5.09912
G1 X142.702 Y85.318 E5.70165
G1 X142.467 Y85.967 E5.76444
G1 X137.392 Y80.892 E6.41721
G1 X136.767 Y81.151 E6.47875
G1 X142.232 Y86.616 E7.18176
G1 X141.997 Y87.265 E7.24455
G1 X136.141 Y81.409 E7.99779
G1 X135.516 Y81.668 E8.05934
G1 X141.763 Y87.915 E8.86281
G1 X141.528 Y88.564 E8.92560
G1 X134.675 Y81.711 E9.80701
G1 E7.80701 F2400.000
G92 E0
G1 X134.342 Y69.002 F7800.000
G1 E2.00000 F2400.000
G1 F1800.000
G1 X133.360 Y68.020 E2.12635
G1 X132.763 Y68.020 E2.18062
G1 X132.763 Y68.307 E2.20675
G1 X134.061 Y69.605 E2.37368
G1 X134.061 Y70.489 E2.45408
G1 X132.763 Y69.191 E2.62101
G1 X132.763 Y70.075 E2.70141
G1 X134.061 Y71.373 E2.86834
G1 X134.061 Y72.257 E2.94874
G1 X132.763 Y70.959 E3.11567
G1 X132.763 Y71.843 E3.19607
G1 X134.061 Y73.141 E3.36301
G1 X134.061 Y74.025 E3.44340
G1 X132.763 Y72.727 E3.61034
G1 X132.763 Y73.611 E3.69073
G1 X134.061 Y74.909 E3.85767
G1 X134.061 Y75.793 E3.93807
G1 X132.207 Y73.939 E4.17655
G1 X130.675 Y73.291 E4.32782
G1 X134.061 Y76.677 E4.76333
G1 X134.061 Y77.561 E4.84372
G1 X129.143 Y72.643 E5.47626
G1 X127.611 Y71.995 E5.62752
G1 X134.061 Y78.445 E6.45708
G1 X134.061 Y79.329 E6.53747
G1 X126.080 Y71.347 E7.56405
G1 X125.331 Y71.031 E7.63796
G1 X125.830 Y71.982 E7.73567
G1 X134.061 Y80.212 E8.79431
G1 X134.061 Y81.096 E8.87471
G1 X126.806 Y73.842 E9.80780
G1 X127.515 Y75.193 E9.94650
G1 X127.515 Y75.435 E9.96853
G1 X141.293 Y89.213 E11.74077
G1 X141.058 Y89.862 E11.80355
G1 X127.515 Y76.319 E13.54559
G1 X127.515 Y77.203 E13.62599
G1 X140.824 Y90.511 E15.33783
G1 X140.589 Y91.160 E15.40062
G1 X127.515 Y78.087 E17.08226
G1 X127.515 Y78.971 E17.16266
G1 X140.354 Y91.810 E18.81411
G1 X140.119 Y92.459 E18.87689
G1 X127.515 Y79.855 E20.49814
G1 X127.515 Y80.738 E20.57854
G1 X139.885 Y93.108 E22.16959
G1 X139.650 Y93.757 E22.23238
G1 X127.515 Y81.622 E23.79323
G1 X127.515 Y82.506 E23.87363
G1 X139.415 Y94.406 E25.40428
G1 X139.180 Y95.056 E25.46707
G1 X127.515 Y83.390 E26.96753
G1 X127.515 Y84.047 E27.02721
G1 X127.451 Y84.210 E27.04320
G1 X138.945 Y95.705 E28.52168
G1 X138.711 Y96.354 E28.58447
G1 X127.203 Y84.846 E30.06467
G1 X126.955 Y85.482 E30.12675
G1 X138.476 Y97.003 E31.60866
G1 X138.241 Y97.652 E31.67145
G1 X126.707 Y86.118 E33.15508
G1 X126.459 Y86.754 E33.21716
G1 X138.193 Y98.488 E34.72652
G1 X138.193 Y99.372 E34.80692
G1 X126.210 Y87.389 E36.34820
G1 X125.962 Y88.025 E36.41027
G1 X138.193 Y100.256 E37.98347
G1 X138.193 Y101.140 E38.06386
G1 X125.714 Y88.661 E39.66897
G1 X125.466 Y89.297 E39.73105
G1 X138.193 Y102.024 E41.36807
G1 X138.193 Y102.908 E41.44847
G1 X125.218 Y89.933 E43.11741
G1 X124.970 Y90.569 E43.17949
G1 X138.193 Y103.792 E44.88034
G1 X138.193 Y104.676 E44.96074
G1 X124.722 Y91.204 E46.69351
G1 X124.474 Y91.840 E46.75559
G1 X138.181 Y105.548 E48.51877
G1 X138.148 Y105.998 E48.55984
G1 X138.074 Y106.324 E48.59024
G1 X124.225 Y92.476 E50.37148
G1 X123.977 Y93.112 E50.43355
G1 X137.847 Y106.981 E52.21755
G1 X137.579 Y107.452 E52.26680
G1 X137.515 Y107.533 E52.27622
G1 X123.729 Y93.748 E54.04942
G1 X123.481 Y94.384 E54.11150
G1 X137.102 Y108.004 E55.86349
G1 X136.870 Y108.221 E55.89232
G1 X136.612 Y108.398 E55.92084
G1 X123.233 Y95.019 E57.64169
G1 X122.985 Y95.655 E57.70377
G1 X136.040 Y108.710 E59.38300
G1 X135.466 Y108.903 E59.43806
G1 X135.365 Y108.919 E59.44740
G1 X122.737 Y96.291 E61.07171
G1 X122.489 Y96.927 E61.13378
G1 X134.548 Y108.986 E62.68494
G1 X134.424 Y108.987 E62.69620
G1 X133.905 Y108.912 E62.74388
G1 X133.453 Y108.776 E62.78680
G1 X122.240 Y97.563 E64.22909
G1 X121.992 Y98.199 E64.29117
G1 X131.793 Y107.999 E65.55174
G1 X131.153 Y107.696 E65.61610
G1 X130.910 Y108.000 E65.65149
G1 X121.744 Y98.834 E66.83049
G1 X121.496 Y99.470 E66.89257
G1 X130.518 Y108.492 E68.05304
G1 X130.126 Y108.984 E68.11025
G1 X121.248 Y100.106 E69.25217
G1 X121.000 Y100.742 E69.31425
G1 X129.733 Y109.475 E70.43763
G1 X129.423 Y109.864 E70.48284
G1 X129.329 Y109.955 E70.49476
G1 X116.740 Y97.366 E72.11410
G1 X116.170 Y96.960 E72.17774
G1 X114.921 Y96.218 E72.30991
G1 X114.505 Y96.015 E72.35194
G1 X128.880 Y110.390 E74.20096
G1 X128.382 Y110.775 E74.25828
G1 X112.914 Y95.308 E76.24776
G1 X112.260 Y95.054 E76.31161
G1 X111.571 Y94.849 E76.37699
G1 X127.843 Y111.121 E78.46994
G1 X127.434 Y111.352 E78.51265
G1 X127.261 Y111.422 E78.52969
G1 X110.375 Y94.537 E80.70159
G1 X109.276 Y94.321 E80.80350
G1 X126.629 Y111.675 E83.03562
G1 X125.931 Y111.860 E83.10136
G1 X108.266 Y94.196 E85.37345
G1 X108.003 Y94.163 E85.39757
G1 X107.321 Y94.135 E85.45962
G1 X125.158 Y111.972 E87.75393
G1 X125.033 Y111.989 E87.76543
G1 X124.294 Y111.992 E87.83265
G1 X106.404 Y94.101 E90.13380
G1 X105.520 Y94.101 E90.21420
G1 X123.298 Y111.880 E92.50095
G1 X122.207 Y111.673 E92.60193
G1 X104.636 Y94.101 E94.86207
G1 X103.752 Y94.101 E94.94247
G1 X121.116 Y111.466 E97.17599
G1 X120.025 Y111.259 E97.27698
G1 X102.868 Y94.101 E99.48389
G1 X101.984 Y94.101 E99.56429
G1 X118.935 Y111.052 E101.74460
G1 X117.844 Y110.845 E101.84558
G1 X101.100 Y94.101 E103.99928
G1 X100.216 Y94.101 E104.07967
G1 X116.753 Y110.638 E106.20676
G1 X115.662 Y110.431 E106.30774
G1 X99.332 Y94.101 E108.40822
G1 X98.448 Y94.101 E108.48861
G1 X114.571 Y110.224 E110.56248
G1 X113.486 Y110.023 E110.66287
G1 X97.564 Y94.101 E112.71084
G1 X96.680 Y94.101 E112.79124
G1 X112.412 Y109.833 E114.81472
G1 X112.112 Y109.780 E114.84242
G1 X111.404 Y109.709 E114.90713
G1 X95.796 Y94.101 E116.91468
G1 X94.912 Y94.101 E116.99507
G1 X110.422 Y109.611 E118.99001
G1 X109.506 Y109.579 E119.07338
G1 X94.028 Y94.101 E121.06417
G1 X93.144 Y94.101 E121.14457
G1 X108.600 Y109.557 E123.13260
G1 X107.749 Y109.590 E123.21006
G1 X92.261 Y94.101 E125.20233
G1 X91.377 Y94.101 E125.28273
G1 X106.909 Y109.634 E127.28063
G1 X106.616 Y109.649 E127.30731
G1 X106.106 Y109.715 E127.35409
G1 X90.211 Y93.820 E129.39857
G1 E127.39857 F2400.000
G92 E0
G1 X89.805 Y73.082 F7800.000
G1 E2.00000 F2400.000
G1 F1800.000
G1 X89.163 Y72.441 E2.08255
G1 X88.279 Y72.441 E2.16295
G1 X89.523 Y73.685 E2.32303
G1 X89.523 Y74.569 E2.40343
G1 X87.114 Y72.159 E2.71338
G1 E0.71338 F2400.000
G92 E0
